X:1
T:Title
%%score ( 1 2 ) { 3 | 4 }
L:1/8
Q:1/4=115
M:4/4
K:C
V:1 treble nm="Grand Piano, Staff 1"
V:2 treble 
V:3 bass nm="Choir Pad, Farmer, 76.76 D"
V:4 bass 
V:1
 C2 C2- C/ z/ C E2 | G2 A4 G2 | G2 [Ge]2- [Ge][Gc] [GB]2 | [Gd]2 [Gc]6 | C2 C2- C/ z/ C E2 | %5
w: By~John~Farmer,~1836\-1901 * * * *|||||
 G2 A4 G2 | [Ge]2 [Gd]2- [Gd][GB] [GB]2 | [^FA]2 G4 z2 | G2 [Fd]2- [Fd][Fd]cB | AG [Ec]4 [EG]2 | %10
w: |||||
 G2 [Fd]2- [Fd][Fd]cB | AG [Ec]6 | [Ec]2 [Ec]2- [Ec][Ec] [Fc]2 | [Gc]2 [Ac]4 [FA]2 | %14
w: ||||
 [FA]2 [EG]2 [Ge]2 [Fd]2- | [Fd][DB] [Ec]6- | [Ec]2 z2 z4 |] %17
w: |||
V:2
 x8 | x8 | x8 | x8 | x8 | x8 | x8 | x8 | z4 z2 F2 | F2 z2 z4 | z4 z2 F2 | F2 z2 z4 | x8 | x8 | x8 | %15
 x8 | x8 |] %17
V:3
 C,2 C,2- C,/ z/ C, E,2 | G,2 A,4 G,2 | G,2[K:treble] C2- CE D2 | F2 E6 | C,2 C,2- C,/ z/ C, E,2 | %5
 G,2 A,4 G,2 | C2 B,2- B,G, D2 | C2 B,4 z2 | G,2 B,2- B,B, D2 | G,2 G,4 G,2 | G,2 B,2- B,B, D2 | %11
 G,2 G,6 | C2 C2- CC C2 | _B,2 A,4 C2 | C2 C2[K:bass] G,2 B,2- | B,G, G,6- | G,2 z2 z4 |] %17
V:4
 z8 | z8 | z2 G,2- G,G, G,2 | G,2 C,6 | z8 | z8 | C,2 D,2- D,D, D,2 | D,2 G,4 z2 | %8
 z2 G,2- G,G, G,2 | z2 C,4 C,2 | z2 G,2- G,G, G,2 | z2 C,6 | C,2 C,2- C,C, D,2 | E,2 F,4 F,2 | %14
 F,2 G,2 z2 G,2- | G, z C,6- | C,2 z2 z4 |] %17

